icons/columns-16.svg

<svg width="16" height="17" viewBox="0 0 16 17" fill="none" xmlns="http://www.w3.org/2000/svg">
<g clip-path="url(#clip0)">
<path fill-rule="evenodd" clip-rule="evenodd" d="M1.75 0.75C0.783502 0.75 0 1.5335 0 2.5V15C0 15.9665 0.783502 16.75 1.75 16.75H5.75C6.7165 16.75 7.5 15.9665 7.5 15V2.5C7.5 1.5335 6.7165 0.75 5.75 0.75H1.75ZM1.5 2.5C1.5 2.36193 1.61193 2.25 1.75 2.25H5.75C5.88807 2.25 6 2.36193 6 2.5V15C6 15.1381 5.88807 15.25 5.75 15.25H1.75C1.61193 15.25 1.5 15.1381 1.5 15V2.5Z" fill="black"/>
<path fill-rule="evenodd" clip-rule="evenodd" d="M10.25 0.75C9.2835 0.75 8.5 1.5335 8.5 2.5V15C8.5 15.9665 9.2835 16.75 10.25 16.75H14.25C15.2165 16.75 16 15.9665 16 15V2.5C16 1.5335 15.2165 0.75 14.25 0.75H10.25ZM10 2.5C10 2.36193 10.1119 2.25 10.25 2.25H14.25C14.3881 2.25 14.5 2.36193 14.5 2.5V15C14.5 15.1381 14.3881 15.25 14.25 15.25H10.25C10.1119 15.25 10 15.1381 10 15V2.5Z" fill="black"/>
</g>
<defs>
<clipPath id="clip0">
<rect width="16" height="16" fill="white" transform="translate(0 0.75)"/>
</clipPath>
</defs>
</svg>

<svg xmlns="http://www.w3.org/2000/svg" width="16" height="17" viewBox="0 0 16 17"><path fill-rule="evenodd" d="M1.75.75A1.75 1.75 0 000 2.5V15c0 .966.784 1.75 1.75 1.75h4A1.75 1.75 0 007.5 15V2.5A1.75 1.75 0 005.75.75h-4zM1.5 2.5a.25.25 0 01.25-.25h4A.25.25 0 016 2.5V15a.25.25 0 01-.25.25h-4A.25.25 0 011.5 15V2.5zM10.25.75A1.75 1.75 0 008.5 2.5V15c0 .966.784 1.75 1.75 1.75h4A1.75 1.75 0 0016 15V2.5A1.75 1.75 0 0014.25.75h-4zM10 2.5a.25.25 0 01.25-.25h4a.25.25 0 01.25.25V15a.25.25 0 01-.25.25h-4A.25.25 0 0110 15V2.5z"/></svg>
